X:2
T:Mr. Garden (of Troup's) Farewell to France
C:Robert Petrie
S:Petrie's Second Collection of Strathspey Reels and Country Dances &c.
Z:Steve Wyrick <sjwyrick'at'gmail'dot'com>, 6/5/04
N:Petrie's Second Collection, page 1
L:1/8
M:C
R:Strathspey
K:F
"^Slow"
C'|F>GA<F          ({d}c)(B/A/)  a>g        |fF          (B/A/)(G/F/) TG>FG<A |\
   F>GAF           ({d}c)(B/A/)  a>g        |(f/g/)(f/d/) c/A/f/c/     AFFC   |
   (F/E/F/G/) AF   ({d}c)(B/A/) Ta>g        |fF           B/A/TG/F/   TG>FG<A |\
   F>G({B}A)({G}F) ({d}c)(B/A/) Ta>g        |(f/g/f/)d/  (c/d/)(c/B/)  AFF   ||
 c|(f/e/)(a/g/) f>c (A/B/c/B/)   B/A/G/F/   |A,c         (d/c/)(B/A/)  BGGc   |\
   f(a/g/)      fc  (A/B/c/)B/  (B/A/)(G/F/)|CB          (A/d/)(c/B/)  AFFc   |
   (f/e/)(a/g/) fc  (A/B/c/)B/  (B/A/)(G/F/)|A,c         (d/c/)(B/A/)  BGGc/B/|\
    A>FCA,           B,DCB                  |A/B/c/A/     f/c/d/B/     AFF   |]
